X:48
T:Reel 48
M:4/4
K:Dmaj
L:1/8
B3c dAFA|BcdB BAFA|BcBA FAde|fddc dfec|BABA FEFA|BdcA BF (3FGA |BcBA FEFg|fgac dAFA| (3Bcd AF Agfe|d2cA AF (3FGA |dfaf g2ec|dBAF GFEd|fgaf gfec|dcdf ecdc|defg afge| (3fga ec dBAF|
